X:1
T:Planxty Fanny Powers
T:Fanny Powers
R:carolan
C:Turlough O'Carolan (1670-1738)
Z:id:hn-carolan-1
M:3/4
L:1/4
Q:1/4=160
K:G
D |: G2D | G>AB | c2B | A2G | GFE | DFD | F2G | A2c |
B>AG | Bcd | e2A | A>BG | GFE | DGF | G3 |1 G2D :|2 G2d ||
|: dB/c/d | dB/c/d | G>BG | GBd | ec/d/e | ec/d/e | A>cA | AcA |
B>cd | efg | f>ga | d2c | B>AG | DGF | G3 |1 G2d :|2 G2 ||
P:variations
D |: G2D | G>AB | c2B | A2G | F>GE | DFD | F2G | A>Bc |
B>AG | B>cd | e2A | A2G | GFE | DGF | G3 |1 G2D :|2 G>AB/c/ ||
|: dB/c/d | dB/c/d | G>AG | GBd | ec/d/e | ec/d/e | A>BA | ABc |
B>cd | e>fg | f>ga | d2c | B>AG | A/B/cF | G3 |1 G>AB/c/ :|2 G2 ||

